components/Company/logos/logo-cohesity.svg

<svg height="140" viewBox="0 0 400 140" width="400" xmlns="http://www.w3.org/2000/svg"><g fill="none"><g fill="#59595c"><path d="m0 23.6301329v-.1266829c0-12.5076751 9.33456951-22.86852732 22.3285734-22.86852732 7.1298732 0 11.6702825 2.33835536 15.7702044 5.74899107.5052429.44263611 1.0104858 1.13712992 1.0104858 2.02164809 0 1.32715429-1.1987283 2.46353016-2.5239556 2.46353016-.6934854 0-1.2619778-.3159532-1.6399687-.5678109-3.4071894-3.03209512-7.2541133-5.05374321-12.6800154-5.05374321-9.77581 0-17.09317274 7.95915541-17.09317274 18.12998321v.1259289c0 10.2341693 7.38061224 18.2566661 17.09317274 18.2566661 5.4891515 0 9.3360754-1.8957192 13.1220088-5.3689423.3779909-.3792947.9464833-.6952479 1.5767192-.6952479 1.2612248 0 2.3967036 1.1363759 2.3967036 2.4001887 0 .7578353-.3787439 1.3897417-.8199843 1.7682823-4.3521668 3.9807088-9.146327 6.5068263-16.4004403 6.5068263-12.74251191 0-22.1403309-10.0441449-22.1403309-22.7410903" transform="translate(32.250138 45.075944)"/><path d="m39.9074118 23.6301329v-.1266829c0-10.044145-7.3173628-18.25591211-17.4101731-18.25591211-10.0928104 0-17.28367419 8.08583831-17.28367419 18.12998321v.1259289c0 10.044899 7.31736279 18.2566661 17.41017309 18.2566661 10.0928104 0 17.2836742-8.0858383 17.2836742-18.1299832m-39.86599845 0v-.1266829c0-12.1917219 9.146327-22.86852732 22.58232425-22.86852732 13.4352443 0 22.4558253 10.55012252 22.4558253 22.74259842v.1259289c0 12.1924759-9.145574 22.8677732-22.5823242 22.8677732-13.43675028 0-22.45582535-10.5493684-22.45582535-22.7410903" transform="translate(78.756353 45.075944)"/><path d="m0 3.18517029c0-1.38974168 1.13472584-2.52762567 2.4599531-2.52762567 1.38847674 0 2.52395555 1.13788399 2.52395555 2.52762567v17.43548941h25.48427075v-17.43548941c0-1.38974168 1.1354789-2.52762567 2.5239556-2.52762567 1.3229683 0 2.4584472 1.13788399 2.4584472 2.52762567v39.79803921c0 1.3897416-1.1354789 2.5261175-2.4584472 2.5261175-1.3884767 0-2.5239556-1.1363759-2.5239556-2.5261175v-17.6888553h-25.48427075v17.6888553c0 1.3897416-1.13547881 2.5261175-2.52395555 2.5261175-1.32522726 0-2.4599531-1.1363759-2.4599531-2.5261175z" transform="translate(135.625168 45.495204)"/><path d="m0 42.1808844v-39.16613279c0-1.38974167 1.13472584-2.52611753 2.4599531-2.52611753h27.439734c1.2619777 0 2.2717106 1.01044701 2.2717106 2.27425984 0 1.26305877-1.0097329 2.27350579-2.2717106 2.27350579h-24.91577845v15.09864219h22.07708135c1.2619778 0 2.2724636 1.0730344 2.2724636 2.2735058 0 1.2638128-1.0104858 2.2742598-2.2724636 2.2742598h-22.07708135v15.4764288h25.23127285c1.2612248 0 2.2717106 1.0119551 2.2717106 2.2742598 0 1.2638129-1.0104858 2.2750139-2.2717106 2.2750139h-27.7552284c-1.32522726 0-2.4599531-1.1371299-2.4599531-2.5276256" transform="translate(184.821971 45.981576)"/><path d="m0 3.18517029c0-1.38974168 1.13547881-2.52762567 2.4599531-2.52762567 1.38772377 0 2.52395555 1.13788399 2.52395555 2.52762567v39.79803921c0 1.3897416-1.13623178 2.5261175-2.52395555 2.5261175-1.32447429 0-2.4599531-1.1363759-2.4599531-2.5261175z" transform="translate(277.50957 45.495204)"/><path d="m15.8123707 4.65258065h-12.80500839c-1.26197777 0-2.33571304-1.01044701-2.33571304-2.27425984s1.07373527-2.33684724 2.33571304-2.33684724h30.65717489c1.2612248 0 2.3334542 1.07303441 2.3334542 2.33684724s-1.0722294 2.27425984-2.3334542 2.27425984h-12.8065143v37.39709645c0 1.3897417-1.1354788 2.5268716-2.5224496 2.5268716-1.3877238 0-2.5232026-1.1371299-2.5232026-2.5268716z" transform="translate(292.540358 46.428737)"/><path d="m17.3183108 27.5738925-16.39893439-22.99445615c-.31549444-.5052235-.56849237-1.07378846-.56849237-1.70569488 0-1.32640022 1.19797532-2.46353014 2.58569909-2.46353014 1.07222933 0 1.7664677.63190641 2.39745659 1.51642458l14.57147608 21.03614949 14.6972221-21.03614949c.6309889-.88451817 1.2604718-1.51642458 2.3349601-1.51642458 1.3862178 0 2.4576942 1.13712992 2.4576942 2.46353014 0 .63190642-.377991 1.32715429-.6927325 1.83237779l-16.3371908 22.74184444v15.2879125c0 1.3889876-1.1369847 2.5253634-2.5224496 2.5253634-1.3884767 0-2.5247085-1.1363758-2.5247085-2.5253634z" transform="translate(335.058317 45.743292)"/></g><path d="m22.589101 31.608894h-20.07342812c-1.31995647 0-2.38992688-1.0715263-2.38992688-2.3941562 0-1.3218758 1.06997041-2.3934021 2.38992688-2.3934021h20.07342812c6.0659266 0 11.0008922-4.9428957 11.0008922-11.0168887 0-6.07474713-4.9349656-11.01688872-11.0008922-11.01688872h-8.9166711c-1.3207095 0-2.3906799-1.07152628-2.3906799-2.39415617 0-1.32187584 1.0699704-2.39340211 2.3906799-2.39340211h8.9166711c8.7020747 0 15.7814989 7.08971853 15.7814989 15.804447 0 8.7147285-7.0794242 15.804447-15.7814989 15.804447" fill="#96c93d" transform="translate(228.685487 59.548712)"/><path d="m24.8480111 31.608894h-8.9174241c-8.70132171 0-15.78149893-7.0897185-15.78149893-15.804447 0-8.71472847 7.08017722-15.804447 15.78149893-15.804447h20.0734281c1.3207095 0 2.3906799 1.07152627 2.3906799 2.39340211 0 1.32262989-1.0699704 2.39415617-2.3906799 2.39415617h-20.0734281c-6.06517362 0-11.00013922 4.94214159-11.00013922 11.01688872 0 6.073993 4.9349656 11.0168887 11.00013922 11.0168887h8.9174241c1.3199565 0 2.3906799 1.0715263 2.3906799 2.3934021 0 1.3226299-1.0707234 2.3941562-2.3906799 2.3941562" fill="#96c93d" transform="translate(224.526081 46.299037)"/></g></svg>

<?xml version="1.0" encoding="UTF-8"?>
<svg width="400px" height="140px" viewBox="0 0 400 140" version="1.1" xmlns="http://www.w3.org/2000/svg" xmlns:xlink="http://www.w3.org/1999/xlink">
    <title>Artboard</title>
    <g id="Artboard" stroke="none" stroke-width="1" fill="none" fill-rule="evenodd">
        <g id="Cohesity-Logo" transform="translate(30.000000, 44.000000)" fill-rule="nonzero">
            <g id="Group" transform="translate(2.250138, 1.075944)" fill="#59595C">
                <path d="M0,23.6301329 L0,23.50345 C0,10.9957749 9.33456951,0.634922676 22.3285734,0.634922676 C29.4584466,0.634922676 33.9988559,2.97327804 38.0987778,6.38391375 C38.6040207,6.82654986 39.1092636,7.52104367 39.1092636,8.40556184 C39.1092636,9.73271613 37.9105353,10.869092 36.585308,10.869092 C35.8918226,10.869092 35.3233302,10.5531388 34.9453393,10.3012811 C31.5381499,7.26918598 27.691226,5.24753789 22.2653239,5.24753789 C12.4895139,5.24753789 5.17215116,13.2066933 5.17215116,23.3775211 L5.17215116,23.50345 C5.17215116,33.7376193 12.5527634,41.7601161 22.2653239,41.7601161 C27.7544754,41.7601161 31.6013993,39.8643969 35.3873327,36.3911738 C35.7653236,36.0118791 36.333816,35.6959259 36.9640519,35.6959259 C38.2252767,35.6959259 39.3607555,36.8323018 39.3607555,38.0961146 C39.3607555,38.8539499 38.9820116,39.4858563 38.5407712,39.8643969 C34.1886044,43.8451057 29.3944442,46.3712232 22.1403309,46.3712232 C9.39781899,46.3712232 0,36.3270783 0,23.6301329" id="Path"></path>
            </g>
            <g id="Group" transform="translate(48.756353, 1.075944)" fill="#59595C">
                <path d="M39.9074118,23.6301329 L39.9074118,23.50345 C39.9074118,13.459305 32.590049,5.24753789 22.4972387,5.24753789 C12.4044283,5.24753789 5.21356451,13.3333762 5.21356451,23.3775211 L5.21356451,23.50345 C5.21356451,33.548349 12.5309273,41.7601161 22.6237376,41.7601161 C32.716548,41.7601161 39.9074118,33.6742778 39.9074118,23.6301329 M0.0414133519,23.6301329 L0.0414133519,23.50345 C0.0414133519,11.3117281 9.18774035,0.634922676 22.6237376,0.634922676 C36.0589819,0.634922676 45.0795629,11.1850452 45.0795629,23.3775211 L45.0795629,23.50345 C45.0795629,35.6959259 35.9339889,46.3712232 22.4972387,46.3712232 C9.06048842,46.3712232 0.0414133519,35.8218548 0.0414133519,23.6301329" id="Shape"></path>
            </g>
            <g id="Group" transform="translate(105.625168, 1.495204)" fill="#59595C">
                <path d="M0,3.18517029 C0,1.79542861 1.13472584,0.657544624 2.4599531,0.657544624 C3.84842984,0.657544624 4.98390865,1.79542861 4.98390865,3.18517029 L4.98390865,20.6206597 L30.4681794,20.6206597 L30.4681794,3.18517029 C30.4681794,1.79542861 31.6036583,0.657544624 32.992135,0.657544624 C34.3151033,0.657544624 35.4505822,1.79542861 35.4505822,3.18517029 L35.4505822,42.9832095 C35.4505822,44.3729511 34.3151033,45.509327 32.992135,45.509327 C31.6036583,45.509327 30.4681794,44.3729511 30.4681794,42.9832095 L30.4681794,25.2943542 L4.98390865,25.2943542 L4.98390865,42.9832095 C4.98390865,44.3729511 3.84842984,45.509327 2.4599531,45.509327 C1.13472584,45.509327 0,44.3729511 0,42.9832095 L0,3.18517029 Z" id="Path"></path>
            </g>
            <g id="Group" transform="translate(154.821971, 1.981576)" fill="#59595C">
                <path d="M0,42.1808844 L0,3.01475161 C0,1.62500994 1.13472584,0.488634078 2.4599531,0.488634078 L29.8996871,0.488634078 C31.1616648,0.488634078 32.1713977,1.49908109 32.1713977,2.76289392 C32.1713977,4.02595269 31.1616648,5.03639971 29.8996871,5.03639971 L4.98390865,5.03639971 L4.98390865,20.1350419 L27.06099,20.1350419 C28.3229678,20.1350419 29.3334536,21.2080763 29.3334536,22.4085477 C29.3334536,23.6723605 28.3229678,24.6828075 27.06099,24.6828075 L4.98390865,24.6828075 L4.98390865,40.1592363 L30.2151815,40.1592363 C31.4764063,40.1592363 32.4868921,41.1711914 32.4868921,42.4334961 C32.4868921,43.697309 31.4764063,44.70851 30.2151815,44.70851 L2.4599531,44.70851 C1.13472584,44.70851 0,43.5713801 0,42.1808844" id="Path"></path>
            </g>
            <g id="Group" transform="translate(247.509570, 1.495204)" fill="#59595C">
                <path d="M0,3.18517029 C0,1.79542861 1.13547881,0.657544624 2.4599531,0.657544624 C3.84767687,0.657544624 4.98390865,1.79542861 4.98390865,3.18517029 L4.98390865,42.9832095 C4.98390865,44.3729511 3.84767687,45.509327 2.4599531,45.509327 C1.13547881,45.509327 0,44.3729511 0,42.9832095 L0,3.18517029 Z" id="Path"></path>
            </g>
            <g id="Group" transform="translate(262.540358, 2.428737)" fill="#59595C">
                <path d="M15.8123707,4.65258065 L3.00736231,4.65258065 C1.74538454,4.65258065 0.67164927,3.64213364 0.67164927,2.37832081 C0.67164927,1.11450798 1.74538454,0.0414735715 3.00736231,0.0414735715 L33.6645372,0.0414735715 C34.925762,0.0414735715 35.9979914,1.11450798 35.9979914,2.37832081 C35.9979914,3.64213364 34.925762,4.65258065 33.6645372,4.65258065 L20.8580229,4.65258065 L20.8580229,42.0496771 C20.8580229,43.4394188 19.7225441,44.5765487 18.3355733,44.5765487 C16.9478495,44.5765487 15.8123707,43.4394188 15.8123707,42.0496771 L15.8123707,4.65258065 Z" id="Path"></path>
            </g>
            <g id="Group" transform="translate(305.058317, 1.743292)" fill="#59595C">
                <path d="M17.3183108,27.5738925 L0.919376411,4.57943635 C0.603881967,4.07421285 0.350884036,3.50564789 0.350884036,2.87374147 C0.350884036,1.54734125 1.54885936,0.410211325 2.93658313,0.410211325 C4.00881246,0.410211325 4.70305083,1.04211774 5.33403972,1.92663591 L19.9055158,22.9627854 L34.6027379,1.92663591 C35.2337268,1.04211774 35.8632097,0.410211325 36.937698,0.410211325 C38.3239158,0.410211325 39.3953922,1.54734125 39.3953922,2.87374147 C39.3953922,3.50564789 39.0174012,4.20089576 38.7026597,4.70611926 L22.3654689,27.4479637 L22.3654689,42.7358762 C22.3654689,44.1248638 21.2284842,45.2612396 19.8430193,45.2612396 C18.4545426,45.2612396 17.3183108,44.1248638 17.3183108,42.7358762 L17.3183108,27.5738925 Z" id="Path"></path>
            </g>
            <g id="Group" transform="translate(198.685487, 15.548712)" fill="#96C93D">
                <path d="M22.589101,31.608894 L2.51567288,31.608894 C1.19571641,31.608894 0.125745996,30.5373677 0.125745996,29.2147378 C0.125745996,27.892862 1.19571641,26.8213357 2.51567288,26.8213357 L22.589101,26.8213357 C28.6550276,26.8213357 33.5899932,21.87844 33.5899932,15.804447 C33.5899932,9.72969987 28.6550276,4.78755828 22.589101,4.78755828 L13.6724299,4.78755828 C12.3517204,4.78755828 11.28175,3.716032 11.28175,2.39340211 C11.28175,1.07152627 12.3517204,0 13.6724299,0 L22.589101,0 C31.2911757,0 38.3705999,7.08971853 38.3705999,15.804447 C38.3705999,24.5191755 31.2911757,31.608894 22.589101,31.608894" id="Path"></path>
            </g>
            <g id="Group" transform="translate(194.526081, 2.299037)" fill="#96C93D">
                <path d="M24.8480111,31.608894 L15.930587,31.608894 C7.22926529,31.608894 0.149088067,24.5191755 0.149088067,15.804447 C0.149088067,7.08971853 7.22926529,0 15.930587,0 L36.0040151,0 C37.3247246,0 38.394695,1.07152627 38.394695,2.39340211 C38.394695,3.716032 37.3247246,4.78755828 36.0040151,4.78755828 L15.930587,4.78755828 C9.86541338,4.78755828 4.93044778,9.72969987 4.93044778,15.804447 C4.93044778,21.87844 9.86541338,26.8213357 15.930587,26.8213357 L24.8480111,26.8213357 C26.1679676,26.8213357 27.238691,27.892862 27.238691,29.2147378 C27.238691,30.5373677 26.1679676,31.608894 24.8480111,31.608894" id="Path"></path>
            </g>
        </g>
    </g>
</svg>
